icons/evolvere-black-folders-vivid-dark/apps/64/vlc.svg

<?xml version="1.0" encoding="UTF-8" standalone="no"?>
<!-- Created with Inkscape (http://www.inkscape.org/) -->

<svg
   xmlns:dc="http://purl.org/dc/elements/1.1/"
   xmlns:cc="http://creativecommons.org/ns#"
   xmlns:rdf="http://www.w3.org/1999/02/22-rdf-syntax-ns#"
   xmlns:svg="http://www.w3.org/2000/svg"
   xmlns="http://www.w3.org/2000/svg"
   xmlns:xlink="http://www.w3.org/1999/xlink"
   xmlns:sodipodi="http://sodipodi.sourceforge.net/DTD/sodipodi-0.dtd"
   xmlns:inkscape="http://www.inkscape.org/namespaces/inkscape"
   width="64"
   height="64"
   id="svg13094"
   version="1.1"
   inkscape:version="0.48.3.1 r9886"
   sodipodi:docname="vlc.svg">
  <sodipodi:namedview
     id="base"
     pagecolor="#cbcdd6"
     bordercolor="#666666"
     borderopacity="1.0"
     inkscape:pageopacity="1"
     inkscape:pageshadow="2"
     inkscape:zoom="22.627418"
     inkscape:cx="35.093796"
     inkscape:cy="54.408055"
     inkscape:document-units="px"
     inkscape:current-layer="svg13094"
     showgrid="true"
     inkscape:snap-bbox="true"
     inkscape:bbox-paths="true"
     inkscape:bbox-nodes="true"
     inkscape:snap-bbox-edge-midpoints="true"
     inkscape:snap-bbox-midpoints="true"
     inkscape:object-paths="true"
     inkscape:snap-intersection-paths="true"
     inkscape:object-nodes="true"
     inkscape:snap-smooth-nodes="true"
     inkscape:snap-midpoints="true"
     inkscape:snap-object-midpoints="true"
     inkscape:snap-center="true"
     showguides="true"
     inkscape:guide-bbox="true"
     inkscape:window-width="1920"
     inkscape:window-height="1033"
     inkscape:window-x="-10"
     inkscape:window-y="25"
     inkscape:window-maximized="1"
     inkscape:snap-global="true"
     fit-margin-top="0"
     fit-margin-left="0"
     fit-margin-right="0"
     fit-margin-bottom="0"
     showborder="true"
     inkscape:showpageshadow="false"
     inkscape:snap-page="true">
    <inkscape:grid
       type="xygrid"
       id="grid3075"
       empspacing="5"
       visible="true"
       enabled="true"
       snapvisiblegridlinesonly="true"
       originx="0px"
       originy="18px" />
  </sodipodi:namedview>
  <defs
     id="defs13096">
    <linearGradient
       id="linearGradient4090">
      <stop
         id="stop4092"
         style="stop-color:#be874c;stop-opacity:1;"
         offset="0" />
      <stop
         id="stop4094"
         style="stop-color:#a66e42;stop-opacity:1;"
         offset="1" />
    </linearGradient>
    <radialGradient
       inkscape:collect="always"
       xlink:href="#linearGradient4090"
       id="radialGradient4088"
       gradientUnits="userSpaceOnUse"
       gradientTransform="matrix(1.3455158,0,0,1.2614211,-11.056506,-26.187209)"
       cx="32"
       cy="33.442936"
       fx="32"
       fy="33.442936"
       r="32" />
  </defs>
  <metadata
     id="metadata13099">
    <rdf:RDF>
      <cc:Work
         rdf:about="">
        <dc:format>image/svg+xml</dc:format>
        <dc:type
           rdf:resource="http://purl.org/dc/dcmitype/StillImage" />
        <dc:title />
      </cc:Work>
    </rdf:RDF>
  </metadata>
  <path
     sodipodi:nodetypes="ccccccccccc"
     inkscape:connector-curvature="0"
     style="color:#000000;fill:url(#radialGradient4088);fill-opacity:1;fill-rule:nonzero;stroke:none;stroke-width:2.28571415;marker:none;visibility:visible;display:inline;overflow:visible;enable-background:accumulate"
     d="m 0,2 0,32 0,28 2,2 30,0 30,0 2,-2 0,-28 0,-32 -32,0 z"
     id="path4086" />
  <rect
     style="color:#000000;fill:#bdbbb1;fill-opacity:1;fill-rule:nonzero;stroke:none;stroke-width:1;marker:none;visibility:visible;display:inline;overflow:visible;enable-background:accumulate"
     id="rect3832"
     width="64"
     height="14"
     x="0"
     y="2" />
  <path
     id="path3398"
     d="m 0,16 0,3 64,0 0,-3 -32,0 z"
     style="color:#000000;fill:#000000;fill-opacity:0.17137809;fill-rule:nonzero;stroke:none;stroke-width:2.28571415000000000;marker:none;visibility:visible;display:inline;overflow:visible;enable-background:accumulate"
     inkscape:connector-curvature="0"
     sodipodi:nodetypes="cccccc" />
  <path
     id="path6161"
     d="M 2,0 0,1 0,2 32,2 64,2 64,1 62,0 32,0 z"
     style="color:#000000;fill:#e1e1dc;fill-opacity:1;fill-rule:nonzero;stroke:none;stroke-width:2.28571415000000000;marker:none;visibility:visible;display:inline;overflow:visible;enable-background:accumulate"
     inkscape:connector-curvature="0"
     sodipodi:nodetypes="ccccccccc" />
  <path
     d="M 64,4 62,2 64,1 z"
     id="path3028"
     style="fill:#1f0700;fill-opacity:0.13759861"
     inkscape:connector-curvature="0"
     sodipodi:nodetypes="cccc" />
  <g
     id="g3043"
     inkscape:export-filename="folder.png"
     inkscape:export-xdpi="90"
     inkscape:export-ydpi="90"
     transform="translate(-0.625,0.082283)" />
  <g
     id="scalable"
     transform="matrix(1.0385892,0,0,1.0385892,1214.7222,1878.8121)"
     inkscape:label="#g3701"
     style="fill:#ffffff" />
  <path
     inkscape:connector-curvature="0"
     id="path5599"
     d="m 32,0 0,4 0,30 32,0 L 64,4 64,1 62,0 32,0 z m 0,34 -32,0 0,28 2,2 30,0 0,-30 z"
     style="color:#000000;fill:url(#linearGradient5601);fill-opacity:1;fill-rule:nonzero;stroke:none;marker:none;visibility:visible;display:inline;overflow:visible;enable-background:accumulate" />
  <path
     style="color:#000000;fill:#575453;fill-opacity:1;fill-rule:nonzero;stroke:none;stroke-width:1;marker:none;visibility:visible;display:inline;overflow:visible;enable-background:accumulate"
     d="M -1,2 4,9 -1,16 4,16 9,9 4,2 z m 10,0 5,7 -5,7 5,0 5,-7 -5,-7 z m 10,0 5,7 -5,7 5,0 5,-7 -5,-7 z m 10,0 5,7 -5,7 5,0 5,-7 -5,-7 z m 10,0 5,7 -5,7 5,0 5,-7 -5,-7 z m 10,0 5,7 -5,7 5,0 5,-7 -5,-7 z m 10,0 5,7 -5,7 5,0 5,-7 -5,-7 z"
     id="path3915"
     inkscape:connector-curvature="0"
     sodipodi:nodetypes="ccccccccccccccccccccccccccccccccccccccccccccccccc" />
  <path
     style="color:#000000;fill:#a39f9e;fill-opacity:1;fill-rule:nonzero;stroke:none;stroke-width:1;marker:none;visibility:visible;display:inline;overflow:visible;enable-background:accumulate"
     d="M 2 0 L 0 1 L 0 2 L 4 2 L 4 0 L 2 0 z M 9 0 L 9 2 L 14 2 L 14 0 L 9 0 z M 19 0 L 19 2 L 24 2 L 24 0 L 19 0 z M 29 0 L 29 2 L 32 2 L 34 2 L 34 0 L 32 0 L 29 0 z M 39 0 L 39 2 L 44 2 L 44 0 L 39 0 z M 49 0 L 49 2 L 54 2 L 54 0 L 49 0 z M 59 0 L 59 2 L 64 2 L 64 1 L 62 0 L 59 0 z "
     id="rect3921" />
  <path
     sodipodi:nodetypes="cccccccc"
     inkscape:connector-curvature="0"
     id="path3951"
     d="M 0,8 0,9 2,9 32,9 64,9 64,8 32,8 z"
     style="fill:#000000;fill-opacity:0.10335689;fill-rule:nonzero" />
  <path
     style="fill:#ffffff;fill-opacity:0.14487633999999999;fill-rule:nonzero;color:#000000;stroke:none;stroke-width:1;marker:none;visibility:visible;display:inline;overflow:visible;enable-background:accumulate;stroke-linecap:butt;stroke-linejoin:miter;stroke-miterlimit:4;stroke-opacity:1;stroke-dasharray:none;stroke-dashoffset:0"
     d="m 0,10 0,-1 2,0 30,0 32,0 0,1 -32,0 z"
     id="path4298"
     inkscape:connector-curvature="0"
     sodipodi:nodetypes="cccccccc" />
  <g
     id="g3943">
    <path
       sodipodi:nodetypes="cccc"
       inkscape:connector-curvature="0"
       id="rect3934"
       d="M 1,3 13,15 1,15 z"
       style="color:#000000;fill:#a29056;fill-opacity:1;fill-rule:nonzero;stroke:none;stroke-width:1;marker:none;visibility:visible;display:inline;overflow:visible;enable-background:accumulate" />
    <path
       transform="translate(1,-1)"
       sodipodi:type="arc"
       style="color:#000000;fill:#414f5a;fill-opacity:1;fill-rule:nonzero;stroke:none;stroke-width:1;marker:none;visibility:visible;display:inline;overflow:visible;enable-background:accumulate"
       id="path3939"
       sodipodi:cx="8.5"
       sodipodi:cy="14.5"
       sodipodi:rx="0.5"
       sodipodi:ry="0.5"
       d="m 9,14.5 a 0.5,0.5 0 1 1 -1,0 0.5,0.5 0 1 1 1,0 z" />
    <path
       sodipodi:type="arc"
       style="color:#000000;fill:#414f5a;fill-opacity:1;fill-rule:nonzero;stroke:none;stroke-width:1;marker:none;visibility:visible;display:inline;overflow:visible;enable-background:accumulate"
       id="path3941"
       sodipodi:cx="8.5"
       sodipodi:cy="14.5"
       sodipodi:rx="0.5"
       sodipodi:ry="0.5"
       d="m 9,14.5 a 0.5,0.5 0 1 1 -1,0 0.5,0.5 0 1 1 1,0 z"
       transform="translate(-6,-1)" />
    <path
       transform="translate(-6,-8)"
       d="m 9,14.5 a 0.5,0.5 0 1 1 -1,0 0.5,0.5 0 1 1 1,0 z"
       sodipodi:ry="0.5"
       sodipodi:rx="0.5"
       sodipodi:cy="14.5"
       sodipodi:cx="8.5"
       id="path3937"
       style="color:#000000;fill:#414f5a;fill-opacity:1;fill-rule:nonzero;stroke:none;stroke-width:1;marker:none;visibility:visible;display:inline;overflow:visible;enable-background:accumulate"
       sodipodi:type="arc" />
  </g>
  <path
     style="fill:#ffffff;fill-opacity:0.35070675;fill-rule:nonzero"
     d="M 0,1 0,34 0,62 1,63 1,34 1,3 2,2 1,1.46875 1,1 z"
     id="path3864"
     inkscape:connector-curvature="0"
     sodipodi:nodetypes="cccccccccc" />
  <path
     sodipodi:nodetypes="cccccccc"
     inkscape:connector-curvature="0"
     id="path3949"
     d="M 0,1 0,4 2,2 32,2 62,2 64,1 32,1 z"
     style="fill:#ffffff;fill-opacity:0.14487634;fill-rule:nonzero" />
  <path
     style="fill:#000000;fill-opacity:0.11130587;fill-rule:nonzero"
     d="M 63,0.5 63,34 63,63 64,62 64,34 64,1 63,0.5 z m 0,62.5 -31,0 -31,0 1,1 30,0 30,0 1,-1 z"
     id="path4366"
     inkscape:connector-curvature="0" />
  <path
     sodipodi:type="arc"
     style="color:#000000;fill:#bdbbb1;fill-opacity:1;fill-rule:nonzero;stroke:none;stroke-width:1;marker:none;visibility:visible;display:inline;overflow:visible;enable-background:accumulate"
     id="path3023"
     sodipodi:cx="32"
     sodipodi:cy="38"
     sodipodi:rx="17"
     sodipodi:ry="17"
     d="m 49,38 a 17,17 0 1 1 -34,0 17,17 0 1 1 34,0 z"
     transform="matrix(0.88235297,0,0,0.88235297,3.7647044,6.4705863)" />
  <path
     style="fill:#000000;fill-opacity:0.14664313"
     d="M 41.65625,40.28125 27,49.09375 l 0,1.59375 16,-9.59375 -1.34375,-0.8125 z"
     id="polygon53"
     inkscape:connector-curvature="0" />
  <path
     inkscape:connector-curvature="0"
     style="color:#000000;fill:#575453;fill-opacity:1;fill-rule:nonzero;stroke:none;stroke-width:1;marker:none;visibility:visible;display:inline;overflow:visible;enable-background:accumulate"
     d="m 26,30.406249 0,19.1875 16,-9.59375 -16,-9.59375 z"
     id="path3915-4" />
</svg>

<?xml version="1.0" encoding="UTF-8" standalone="no"?>
<!-- Created with Inkscape (http://www.inkscape.org/) -->

<svg
   xmlns:dc="http://purl.org/dc/elements/1.1/"
   xmlns:cc="http://creativecommons.org/ns#"
   xmlns:rdf="http://www.w3.org/1999/02/22-rdf-syntax-ns#"
   xmlns:svg="http://www.w3.org/2000/svg"
   xmlns="http://www.w3.org/2000/svg"
   xmlns:xlink="http://www.w3.org/1999/xlink"
   xmlns:sodipodi="http://sodipodi.sourceforge.net/DTD/sodipodi-0.dtd"
   xmlns:inkscape="http://www.inkscape.org/namespaces/inkscape"
   width="64"
   height="64"
   id="svg13094"
   version="1.1"
   inkscape:version="0.48.3.1 r9886"
   sodipodi:docname="vlc.svg">
  <sodipodi:namedview
     id="base"
     pagecolor="#ffffff"
     bordercolor="#666666"
     borderopacity="1.0"
     inkscape:pageopacity="0"
     inkscape:pageshadow="2"
     inkscape:zoom="11.313709"
     inkscape:cx="17.947718"
     inkscape:cy="31.299249"
     inkscape:document-units="px"
     inkscape:current-layer="svg13094"
     showgrid="true"
     inkscape:snap-bbox="true"
     inkscape:bbox-paths="true"
     inkscape:bbox-nodes="true"
     inkscape:snap-bbox-edge-midpoints="true"
     inkscape:snap-bbox-midpoints="true"
     inkscape:object-paths="true"
     inkscape:snap-intersection-paths="true"
     inkscape:object-nodes="true"
     inkscape:snap-smooth-nodes="true"
     inkscape:snap-midpoints="true"
     inkscape:snap-object-midpoints="true"
     inkscape:snap-center="true"
     showguides="true"
     inkscape:guide-bbox="true"
     inkscape:window-width="1920"
     inkscape:window-height="1023"
     inkscape:window-x="-10"
     inkscape:window-y="35"
     inkscape:window-maximized="1"
     inkscape:snap-global="true"
     fit-margin-top="0"
     fit-margin-left="0"
     fit-margin-right="0"
     fit-margin-bottom="0"
     showborder="true"
     inkscape:showpageshadow="false"
     inkscape:snap-page="true">
    <inkscape:grid
       type="xygrid"
       id="grid3075"
       empspacing="5"
       visible="true"
       enabled="true"
       snapvisiblegridlinesonly="true"
       originx="0px"
       originy="18px" />
  </sodipodi:namedview>
  <defs
     id="defs13096">
    <linearGradient
       id="linearGradient4090">
      <stop
         id="stop4092"
         style="stop-color:#e48826;stop-opacity:1;"
         offset="0" />
      <stop
         id="stop4094"
         style="stop-color:#c76d26;stop-opacity:1;"
         offset="1" />
    </linearGradient>
    <radialGradient
       inkscape:collect="always"
       xlink:href="#linearGradient4090"
       id="radialGradient4088"
       gradientUnits="userSpaceOnUse"
       gradientTransform="matrix(1.3455158,0,0,1.2614211,-11.056506,-26.187209)"
       cx="32"
       cy="33.442936"
       fx="32"
       fy="33.442936"
       r="32" />
  </defs>
  <metadata
     id="metadata13099">
    <rdf:RDF>
      <cc:Work
         rdf:about="">
        <dc:format>image/svg+xml</dc:format>
        <dc:type
           rdf:resource="http://purl.org/dc/dcmitype/StillImage" />
        <dc:title />
      </cc:Work>
    </rdf:RDF>
  </metadata>
  <path
     sodipodi:nodetypes="ccccccccccc"
     inkscape:connector-curvature="0"
     style="color:#000000;fill:url(#radialGradient4088);fill-opacity:1;fill-rule:nonzero;stroke:none;stroke-width:2.28571415;marker:none;visibility:visible;display:inline;overflow:visible;enable-background:accumulate"
     d="m 0,2 0,32 0,28 2,2 30,0 30,0 2,-2 0,-28 0,-32 -32,0 z"
     id="path4086" />
  <rect
     style="color:#000000;fill:#cfcdc3;fill-opacity:1;fill-rule:nonzero;stroke:none;stroke-width:0.88235295000000002;marker:none;visibility:visible;display:inline;overflow:visible;enable-background:accumulate"
     id="rect3832"
     width="64"
     height="14"
     x="0"
     y="2" />
  <path
     id="path3398"
     d="m 0,16 0,3 64,0 0,-3 -32,0 z"
     style="color:#000000;fill:#000000;fill-opacity:0.17137809;fill-rule:nonzero;stroke:none;stroke-width:2.28571415000000000;marker:none;visibility:visible;display:inline;overflow:visible;enable-background:accumulate"
     inkscape:connector-curvature="0"
     sodipodi:nodetypes="cccccc" />
  <path
     id="path6161"
     d="M 2,0 0,1 0,2 32,2 64,2 64,1 62,0 32,0 z"
     style="color:#000000;fill:#ffffff;fill-opacity:1;fill-rule:nonzero;stroke:none;stroke-width:2.28571415000000000;marker:none;visibility:visible;display:inline;overflow:visible;enable-background:accumulate"
     inkscape:connector-curvature="0"
     sodipodi:nodetypes="ccccccccc" />
  <path
     d="M 64,4 62,2 64,1 z"
     id="path3028"
     style="fill:#1f0700;fill-opacity:0.13759861"
     inkscape:connector-curvature="0"
     sodipodi:nodetypes="cccc" />
  <g
     id="g3043"
     inkscape:export-filename="folder.png"
     inkscape:export-xdpi="90"
     inkscape:export-ydpi="90"
     transform="translate(-0.625,0.082283)" />
  <g
     id="scalable"
     transform="matrix(1.0385892,0,0,1.0385892,1214.7222,1878.8121)"
     inkscape:label="#g3701"
     style="fill:#ffffff" />
  <path
     inkscape:connector-curvature="0"
     id="path5599"
     d="m 32,0 0,4 0,30 32,0 L 64,4 64,1 62,0 32,0 z m 0,34 -32,0 0,28 2,2 30,0 0,-30 z"
     style="color:#000000;fill:url(#linearGradient5601);fill-opacity:1;fill-rule:nonzero;stroke:none;marker:none;visibility:visible;display:inline;overflow:visible;enable-background:accumulate" />
  <path
     style="color:#000000;fill:#4d4a49;fill-opacity:1;fill-rule:nonzero;stroke:none;stroke-width:1;marker:none;visibility:visible;display:inline;overflow:visible;enable-background:accumulate"
     d="M 0 2 L 0 3.40625 L 4 9 L 0 14.59375 L 0 16 L 4 16 L 9 9 L 4 2 L 0 2 z M 9 2 L 14 9 L 9 16 L 14 16 L 19 9 L 14 2 L 9 2 z M 19 2 L 24 9 L 19 16 L 24 16 L 29 9 L 24 2 L 19 2 z M 29 2 L 34 9 L 29 16 L 34 16 L 39 9 L 34 2 L 29 2 z M 39 2 L 44 9 L 39 16 L 44 16 L 49 9 L 44 2 L 39 2 z M 49 2 L 54 9 L 49 16 L 54 16 L 59 9 L 54 2 L 49 2 z M 59 2 L 64 9 L 64 2 L 59 2 z M 64 9 L 59 16 L 64 16 L 64 9 z "
     id="path3915" />
  <path
     style="color:#000000;fill:#a39f9e;fill-opacity:1;fill-rule:nonzero;stroke:none;stroke-width:1;marker:none;visibility:visible;display:inline;overflow:visible;enable-background:accumulate"
     d="M 2 0 L 0 1 L 0 2 L 4 2 L 4 0 L 2 0 z M 9 0 L 9 2 L 14 2 L 14 0 L 9 0 z M 19 0 L 19 2 L 24 2 L 24 0 L 19 0 z M 29 0 L 29 2 L 32 2 L 34 2 L 34 0 L 32 0 L 29 0 z M 39 0 L 39 2 L 44 2 L 44 0 L 39 0 z M 49 0 L 49 2 L 54 2 L 54 0 L 49 0 z M 59 0 L 59 2 L 64 2 L 64 1 L 62 0 L 59 0 z "
     id="rect3921" />
  <path
     sodipodi:nodetypes="cccccccc"
     inkscape:connector-curvature="0"
     id="path3951"
     d="M 0,8 0,9 2,9 32,9 64,9 64,8 32,8 z"
     style="fill:#000000;fill-opacity:0.10335689;fill-rule:nonzero" />
  <path
     style="fill:#ffffff;fill-opacity:0.14487633999999999;fill-rule:nonzero;color:#000000;stroke:none;stroke-width:1;marker:none;visibility:visible;display:inline;overflow:visible;enable-background:accumulate;stroke-linecap:butt;stroke-linejoin:miter;stroke-miterlimit:4;stroke-opacity:1;stroke-dasharray:none;stroke-dashoffset:0"
     d="m 0,10 0,-1 2,0 30,0 32,0 0,1 -32,0 z"
     id="path4298"
     inkscape:connector-curvature="0"
     sodipodi:nodetypes="cccccccc" />
  <g
     id="g3943">
    <path
       sodipodi:nodetypes="cccc"
       inkscape:connector-curvature="0"
       id="rect3934"
       d="M 1,3 13,15 1,15 z"
       style="color:#000000;fill:#bf9f39;fill-opacity:1;fill-rule:nonzero;stroke:none;stroke-width:1;marker:none;visibility:visible;display:inline;overflow:visible;enable-background:accumulate" />
    <path
       transform="translate(1,-1)"
       sodipodi:type="arc"
       style="color:#000000;fill:#414f5a;fill-opacity:1;fill-rule:nonzero;stroke:none;stroke-width:1;marker:none;visibility:visible;display:inline;overflow:visible;enable-background:accumulate"
       id="path3939"
       sodipodi:cx="8.5"
       sodipodi:cy="14.5"
       sodipodi:rx="0.5"
       sodipodi:ry="0.5"
       d="m 9,14.5 a 0.5,0.5 0 1 1 -1,0 0.5,0.5 0 1 1 1,0 z" />
    <path
       sodipodi:type="arc"
       style="color:#000000;fill:#414f5a;fill-opacity:1;fill-rule:nonzero;stroke:none;stroke-width:1;marker:none;visibility:visible;display:inline;overflow:visible;enable-background:accumulate"
       id="path3941"
       sodipodi:cx="8.5"
       sodipodi:cy="14.5"
       sodipodi:rx="0.5"
       sodipodi:ry="0.5"
       d="m 9,14.5 a 0.5,0.5 0 1 1 -1,0 0.5,0.5 0 1 1 1,0 z"
       transform="translate(-6,-1)" />
    <path
       transform="translate(-6,-8)"
       d="m 9,14.5 a 0.5,0.5 0 1 1 -1,0 0.5,0.5 0 1 1 1,0 z"
       sodipodi:ry="0.5"
       sodipodi:rx="0.5"
       sodipodi:cy="14.5"
       sodipodi:cx="8.5"
       id="path3937"
       style="color:#000000;fill:#414f5a;fill-opacity:1;fill-rule:nonzero;stroke:none;stroke-width:1;marker:none;visibility:visible;display:inline;overflow:visible;enable-background:accumulate"
       sodipodi:type="arc" />
  </g>
  <path
     style="fill:#ffffff;fill-opacity:0.35070675;fill-rule:nonzero"
     d="M 0,1 0,34 0,62 1,63 1,34 1,3 2,2 1,1.46875 1,1 z"
     id="path3864"
     inkscape:connector-curvature="0"
     sodipodi:nodetypes="cccccccccc" />
  <path
     sodipodi:nodetypes="cccccccc"
     inkscape:connector-curvature="0"
     id="path3949"
     d="M 0,1 0,4 2,2 32,2 62,2 64,1 32,1 z"
     style="fill:#ffffff;fill-opacity:0.14487634;fill-rule:nonzero" />
  <path
     style="fill:#000000;fill-opacity:0.11130587;fill-rule:nonzero"
     d="M 63,0.5 63,34 63,63 64,62 64,34 64,1 63,0.5 z m 0,62.5 -31,0 -31,0 1,1 30,0 30,0 1,-1 z"
     id="path4366"
     inkscape:connector-curvature="0" />
  <path
     sodipodi:type="arc"
     style="color:#000000;fill:#d5d4cb;fill-opacity:1;fill-rule:nonzero;stroke:none;stroke-width:1;marker:none;visibility:visible;display:inline;overflow:visible;enable-background:accumulate"
     id="path3023"
     sodipodi:cx="32"
     sodipodi:cy="38"
     sodipodi:rx="17"
     sodipodi:ry="17"
     d="m 49,38 a 17,17 0 1 1 -34,0 17,17 0 1 1 34,0 z"
     transform="matrix(0.88235297,0,0,0.88235297,3.7647044,6.4705863)" />
  <path
     style="fill:#000000;fill-opacity:0.14664313"
     d="M 41.65625,40.28125 27,49.09375 l 0,1.59375 16,-9.59375 -1.34375,-0.8125 z"
     id="polygon53"
     inkscape:connector-curvature="0" />
  <path
     inkscape:connector-curvature="0"
     style="color:#000000;fill:#484645;fill-opacity:1;fill-rule:nonzero;stroke:none;stroke-width:1;marker:none;visibility:visible;display:inline;overflow:visible;enable-background:accumulate"
     d="m 26,30.406249 0,19.1875 16,-9.59375 -16,-9.59375 z"
     id="path3915-4" />
</svg>
